X: 1
T: Another Jig Will Do   [D]
C: Irish
M: 9/8
Z: Transcribed to abc by Mary Lou Knack
R: slipjig
K: D
|: "D"ABA A2G "(A7)"F2G | "D"ABA AGF "G"~G3 | "D"ABA A2G "(A7)"F2G | "D"A2d "A7"d2c "D"d3 :|
[| "D"A2g f2d "A7"e2c | "C"A2B =c2B c2B | "D"A2g f2d "A7"e2c | "D"A2d "A7"d2c "D"d3 |]
[| "D"A2g f2d "A7"e2c | "C"A2B =c2B "(A7)"c2^c | "D"d>AA A2G "A7"F2G | "D"A2d "A7"d2c "D"d3 |]
